_includes/icons/ios-building.svg

<svg fill="#666" height="50" viewBox="0 0 50 50" width="50" xmlns="http://www.w3.org/2000/svg"><path d="m24.962891 1.0546875a1.0001 1.0001 0 0 0 -.578125.2089844l-23.0000004 17.9472661a1.0005659 1.0005659 0 0 0 1.2304688 1.578124l1.3847656-1.080078v26.291016a1.0001 1.0001 0 0 0 1 1h13.832031a1.0001 1.0001 0 0 0 .326172 0h11.673828a1.0001 1.0001 0 0 0 .326172 0h13.841797a1.0001 1.0001 0 0 0 1-1v-26.291016l1.384766 1.080078a1.0005657 1.0005657 0 1 0 1.230468-1.578124l-7.615234-5.941407v-7.269531h-6v2.5859375l-9.384766-7.3222656a1.0001 1.0001 0 0 0 -.652343-.2089844zm.037109 2.2675781 19 14.8261724v26.851562h-12v-19h-14v19h-12v-26.851562zm12 4.6777344h2v3.708984l-2-1.5625zm-17 20h10v17h-10z"/></svg>

<svg xmlns="http://www.w3.org/2000/svg" viewBox="0 0 50 50" width="50" height="50" fill="#666"><path style="line-height:normal;text-indent:0;text-align:start;text-decoration-line:none;text-decoration-style:solid;text-decoration-color:#000;text-transform:none;block-progression:tb;isolation:auto;mix-blend-mode:normal" d="M 24.962891 1.0546875 A 1.0001 1.0001 0 0 0 24.384766 1.2636719 L 1.3847656 19.210938 A 1.0005659 1.0005659 0 0 0 2.6152344 20.789062 L 4 19.708984 L 4 46 A 1.0001 1.0001 0 0 0 5 47 L 18.832031 47 A 1.0001 1.0001 0 0 0 19.158203 47 L 30.832031 47 A 1.0001 1.0001 0 0 0 31.158203 47 L 45 47 A 1.0001 1.0001 0 0 0 46 46 L 46 19.708984 L 47.384766 20.789062 A 1.0005657 1.0005657 0 1 0 48.615234 19.210938 L 41 13.269531 L 41 6 L 35 6 L 35 8.5859375 L 25.615234 1.2636719 A 1.0001 1.0001 0 0 0 24.962891 1.0546875 z M 25 3.3222656 L 44 18.148438 L 44 45 L 32 45 L 32 26 L 18 26 L 18 45 L 6 45 L 6 18.148438 L 25 3.3222656 z M 37 8 L 39 8 L 39 11.708984 L 37 10.146484 L 37 8 z M 20 28 L 30 28 L 30 45 L 20 45 L 20 28 z"/></svg>
